X:93
T:Waltz
O:No 93 Wm Clarke MS  Feltwell, Norfolk
N:Time signature given as 3/8 in MS
N:Last bar of each strain given as crochet in MS
I:abc2nwc
M:3/4
L:1/8
K:G
"^*"dg|b2ag fe|ed Bd gd|dc Bc AF|GF GB dg|
b2ag fe|ed Bd gd|dc Bc AF|G4"^*":|
|:d2|d2 (3(fed)  (3(fed)|gd ad bd|c'b c'a fd|d'^c' d'b g2|
d2 (3(fed)  (3(fed)|gd ad bd|c'b c'a fd|"^*"g4:|

